icons/src/scalable/default/devices/media-optical-video-symbolic.svg

<svg xmlns="http://www.w3.org/2000/svg" viewBox="0 0 16 16">
  <defs id="defs3051">
    <style type="text/css" id="current-color-scheme">
      .ColorScheme-Text {
        color:#4d4d4d;
      }
      </style>
  </defs>
 <path 
     style="fill:#bebebe;fill-opacity:1;stroke:none" 
     class="ColorScheme-Text"
     d="M 8 0.5 C 3.845 0.5 0.5 3.845 0.5 8 C 0.5 12.155 3.845 15.5 8 15.5 C 12.155 15.5 15.5 12.155 15.5 8 C 15.5 3.845 12.155 0.5 8 0.5 z M 10.880859 6.125 C 11.230155 6.125 11.513672 6.4065631 11.513672 6.7558594 C 11.513672 7.1051559 11.230162 7.390625 10.880859 7.390625 C 10.531563 7.390625 10.248045 7.1051559 10.248047 6.7558594 C 10.248046 6.4065631 10.531563 6.125 10.880859 6.125 z M 12.324219 6.125 C 12.673453 6.125 12.958984 6.4065631 12.958984 6.7558594 C 12.958984 7.1051559 12.673453 7.390625 12.324219 7.390625 C 11.974948 7.390625 11.693359 7.1051559 11.693359 6.7558594 C 11.693359 6.4065631 11.974948 6.125 12.324219 6.125 z M 8 7.0625 C 8.5193741 7.0625 8.9375 7.4806259 8.9375 8 C 8.9375 8.5193741 8.5193741 8.9375 8 8.9375 C 7.4806259 8.9375 7.0625 8.5193741 7.0625 8 C 7.0625 7.4806259 7.4806259 7.0625 8 7.0625 z M 10.484375 7.6152344 L 12.720703 7.6152344 C 12.850932 7.6152344 12.955078 7.7450778 12.955078 7.90625 L 12.955078 8.1660156 C 12.955918 8.1828906 12.971226 8.2472871 13.138672 8.1894531 L 14.058594 7.8691406 C 14.087314 7.8577126 14.150371 7.8450751 14.150391 7.9394531 L 14.150391 9.546875 C 14.150391 9.617366 14.112485 9.620138 14.078125 9.609375 L 13.125 9.3828125 C 12.969156 9.3458375 12.955791 9.392488 12.955078 9.40625 L 12.955078 9.5839844 C 12.955078 9.7450928 12.850932 9.875 12.720703 9.875 L 10.484375 9.875 C 10.354208 9.875 10.248047 9.7450928 10.248047 9.5839844 L 10.248047 7.90625 C 10.248047 7.7450844 10.354208 7.6152344 10.484375 7.6152344 z "
     />
</svg>

<svg version="1.1" viewBox="0 0 16 16" xmlns="http://www.w3.org/2000/svg">
 <path d="m8 0.5c-4.155 0-7.5 3.345-7.5 7.5s3.345 7.5 7.5 7.5 7.5-3.345 7.5-7.5-3.345-7.5-7.5-7.5zm2.8809 5.625c0.3493 0 0.63281 0.28156 0.63281 0.63086 0 0.3493-0.28351 0.63477-0.63281 0.63477-0.3493 0-0.63281-0.28547-0.63281-0.63477-1e-6 -0.3493 0.28352-0.63086 0.63281-0.63086zm1.4434 0c0.34923 0 0.63476 0.28156 0.63476 0.63086 0 0.3493-0.28553 0.63477-0.63476 0.63477-0.34927 0-0.63086-0.28547-0.63086-0.63477 0-0.3493 0.28159-0.63086 0.63086-0.63086zm-4.3242 0.9375c0.51937 0 0.9375 0.41813 0.9375 0.9375s-0.41813 0.9375-0.9375 0.9375-0.9375-0.41813-0.9375-0.9375 0.41813-0.9375 0.9375-0.9375zm2.4844 0.55273h2.2363c0.13023 0 0.23438 0.12984 0.23438 0.29102v0.25977c8.4e-4 0.016875 0.016148 0.081272 0.18359 0.023438l0.91992-0.32031c0.02872-0.011428 0.091777-0.024066 0.091797 0.070312v1.6074c0 0.070491-0.037906 0.073263-0.072266 0.0625l-0.95312-0.22656c-0.15584-0.036975-0.16921 0.0096755-0.16992 0.023438v0.17773c0 0.16111-0.10415 0.29102-0.23438 0.29102h-2.2363c-0.13017 0-0.23633-0.12991-0.23633-0.29102v-1.6777c0-0.16117 0.10616-0.29102 0.23633-0.29102z" fill="#bebebe"/>
</svg>
